flags/somaliland.svg

<svg width="512" height="512" viewBox="0 0 512 512" fill="none" xmlns="http://www.w3.org/2000/svg">
<rect y="136" width="512" height="240" fill="var(--flag-palette-white, #eeeeee)"/>
<rect y="344" width="512" height="168" fill="var(--flag-palette-bright-red, #d80027)"/>
<rect width="512" height="168" fill="var(--flag-palette-dark-green, #496e2d)"/>
<path d="M256 200.301L269.8 242.901H314.5L278.4 269.001L292.2 311.601L256 285.301L219.8 311.601L233.6 269.001L197.5 242.801H242.2L256 200.301Z" fill="var(--flag-palette-black, #333333)"/>
<path fill-rule="evenodd" clip-rule="evenodd" d="M331.999 50V102C331.999 110.2 325.399 116.9 317.199 116.9V139C327.021 139 336.443 135.105 343.398 128.169C350.352 121.233 354.273 111.822 354.299 102V50H332.099H331.999ZM172.499 102C172.499 110.2 165.899 116.9 157.699 116.9V139C167.504 138.974 176.9 135.067 183.833 128.134C190.766 121.201 194.673 111.805 194.699 102V50H172.499V102ZM298.698 50H320.898V102H298.698V50ZM265.298 79.8C265.298 80.7813 264.909 81.7224 264.215 82.4163C263.521 83.1102 262.58 83.5 261.598 83.5C260.617 83.5 259.676 83.1102 258.982 82.4163C258.288 81.7224 257.898 80.7813 257.898 79.8V50H235.598V79.7C235.598 80.1859 235.503 80.667 235.317 81.1159C235.131 81.5648 234.858 81.9727 234.515 82.3163C234.171 82.6599 233.763 82.9324 233.314 83.1184C232.865 83.3043 232.384 83.4 231.898 83.4C231.413 83.4 230.931 83.3043 230.483 83.1184C230.034 82.9324 229.626 82.6599 229.282 82.3163C228.939 81.9727 228.666 81.5648 228.48 81.1159C228.294 80.667 228.198 80.1859 228.198 79.7V50H205.898V79.7C205.898 83.1144 206.571 86.4953 207.878 89.6498C209.184 92.8042 211.099 95.6705 213.514 98.0848C218.39 102.961 225.003 105.7 231.898 105.7C237.197 105.69 242.365 104.049 246.698 101C251.072 104.034 256.276 105.64 261.598 105.6C262.598 105.6 263.798 105.6 264.798 105.4C264.017 108.636 262.174 111.516 259.564 113.583C256.954 115.649 253.727 116.781 250.398 116.8V139C260.221 139 269.642 135.105 276.597 128.169C283.552 121.233 287.472 111.822 287.498 102V50H265.298V79.7V79.8ZM239.298 116.9H205.998L205.898 139H239.298V116.9Z" fill="var(--flag-palette-white, #eeeeee)"/>
</svg>

<svg xmlns="http://www.w3.org/2000/svg" width="512" height="512" fill="none"><g clip-path="url(#a)"><path fill="#EEE" d="M0 136h512v240H0z"/><path fill="var(--flag-palette-bright-red, #d80027)" d="M0 344h512v168H0z"/><path fill="var(--flag-palette-dark-green, #496e2d)" d="M0 0h512v168H0z"/><path fill="#333" d="m256 200.3 13.8 42.6h44.7L278.4 269l13.8 42.6-36.2-26.3-36.2 26.3 13.8-42.6-36.1-26.2h44.7z"/><path fill="#EEE" fill-rule="evenodd" d="M332 50v52c0 8.2-6.6 14.9-14.8 14.9V139a37 37 0 0 0 37.1-37V50zm-159.5 52c0 8.2-6.6 14.9-14.8 14.9V139a37 37 0 0 0 37-37V50h-22.2zm126.2-52h22.2v52h-22.2zm-33.4 29.8a3.7 3.7 0 1 1-7.4 0V50h-22.3v29.7a3.7 3.7 0 1 1-7.4 0V50h-22.3v29.7a26 26 0 0 0 40.8 21.3q6.8 4.5 14.9 4.6l3.2-.2a15 15 0 0 1-14.4 11.4V139a37 37 0 0 0 37.1-37V50h-22.2zm-26 37.1H206l-.1 22.1h33.4z" clip-rule="evenodd"/></g><defs><clipPath id="a"><path fill="#fff" d="M0 0h512v512H0z"/></clipPath></defs></svg>
